shell_integration/icons/nopadding/SVG/attention.svg

<?xml version="1.0" encoding="UTF-8" standalone="no"?>
<svg
   xmlns:dc="http://purl.org/dc/elements/1.1/"
   xmlns:cc="http://creativecommons.org/ns#"
   xmlns:rdf="http://www.w3.org/1999/02/22-rdf-syntax-ns#"
   xmlns:svg="http://www.w3.org/2000/svg"
   xmlns="http://www.w3.org/2000/svg"
   xml:space="preserve"
   enable-background="new 0 0 128 128"
   viewBox="0 0 128 128"
   y="0px"
   x="0px"
   id="Sync"
   version="1.1"><metadata
     id="metadata29"><rdf:RDF><cc:Work
         rdf:about=""><dc:format>image/svg+xml</dc:format><dc:type
           rdf:resource="http://purl.org/dc/dcmitype/StillImage" /><dc:title></dc:title></cc:Work></rdf:RDF></metadata><defs
     id="defs27" /><g
     transform="matrix(0.96875,0,0,0.96875,2,2)"
     id="g3"><g
       id="g5"><g
         id="g7"><circle
           style="fill:#e0d92d"
           id="circle9"
           r="61.900002"
           cy="64"
           cx="64" /><path
           style="fill:#8e7409"
           id="path11"
           d="M 64,128 C 28.7,128 0,99.3 0,64 0,28.7 28.7,0 64,0 c 35.3,0 64,28.7 64,64 0,35.3 -28.7,64 -64,64 z M 64,4.1 C 31,4.1 4.1,31 4.1,64 4.1,97 31,123.9 64,123.9 97,123.9 123.9,97 123.9,64 123.9,31 97,4.1 64,4.1 Z" /></g></g><g
       id="g13"><g
         id="g15"><g
           id="g17"><path
             style="fill:#ffffff"
             id="path19"
             d="m 64,107.4 c -5.6,0 -10.2,-4.6 -10.2,-10.2 0,-5.6 4.6,-10.2 10.2,-10.2 5.6,0 10.2,4.6 10.2,10.2 0,5.6 -4.6,10.2 -10.2,10.2 z M 64,81.3 C 55.7,81.3 55.7,74 55.7,71.1 L 52,30.9 52,30.8 c 0,-5.6 5.4,-10.2 12,-10.2 6.6,0 12,4.6 12,10.2 l 0,0.1 -3.7,40.3 c 0,2.8 0,10.1 -8.3,10.1 z" /></g><g
           id="g21"><path
             style="fill:#8e7409"
             id="path23"
             d="m 64,21.9 c 5.9,0 10.7,4 10.7,8.8 L 71,71 c 0,4.9 -1.1,8.8 -7,8.8 -5.9,0 -6.9,-4 -6.9,-8.8 L 53.4,30.7 C 53.3,25.9 58.1,21.9 64,21.9 m 0,66.4 c 4.9,0 8.9,4 8.9,8.8 0,4.9 -4,8.9 -8.9,8.9 -4.9,0 -8.9,-4 -8.9,-8.9 0,-4.8 4,-8.8 8.9,-8.8 m 0,-69.1 c -3.5,0 -6.8,1.1 -9.3,3.2 -2.7,2.2 -4.1,5.2 -4.1,8.4 l 0,0.1 0,0.1 3.7,40.1 c 0,2.3 0.2,5.2 1.7,7.6 1.6,2.6 4.3,3.9 8,3.9 3.7,0 6.4,-1.3 8,-3.9 1.5,-2.3 1.7,-5.3 1.7,-7.6 l 3.7,-40.1 0,-0.1 0,-0.1 c 0,-3.2 -1.5,-6.2 -4.1,-8.4 -2.5,-2.1 -5.8,-3.2 -9.3,-3.2 l 0,0 z m 0,66.4 c -6.4,0 -11.6,5.2 -11.6,11.6 0,6.4 5.2,11.6 11.6,11.6 6.4,0 11.6,-5.2 11.6,-11.6 0,-6.4 -5.2,-11.6 -11.6,-11.6 l 0,0 z" /></g></g></g></g></svg>

<?xml version="1.0" encoding="utf-8"?>
<!-- Generator: Adobe Illustrator 18.0.0, SVG Export Plug-In . SVG Version: 6.00 Build 0)  -->
<!DOCTYPE svg PUBLIC "-//W3C//DTD SVG 1.1//EN" "http://www.w3.org/Graphics/SVG/1.1/DTD/svg11.dtd">
<svg version="1.1" id="Sync" xmlns="http://www.w3.org/2000/svg" xmlns:xlink="http://www.w3.org/1999/xlink" x="0px" y="0px"
	 viewBox="0 0 128 128" enable-background="new 0 0 128 128" xml:space="preserve">
<g>
	<g>
		<g>
			<circle fill="#E0D92D" cx="64" cy="64" r="61.9"/>
			<path fill="#8E7409" d="M64,128C28.7,128,0,99.3,0,64S28.7,0,64,0s64,28.7,64,64S99.3,128,64,128z M64,4.1C31,4.1,4.1,31,4.1,64
				c0,33,26.9,59.9,59.9,59.9c33,0,59.9-26.9,59.9-59.9C123.9,31,97,4.1,64,4.1z"/>
		</g>
	</g>
	<g>
		<g>
			<g>
				<path fill="#FFFFFF" d="M64,107.4c-5.6,0-10.2-4.6-10.2-10.2C53.8,91.6,58.4,87,64,87c5.6,0,10.2,4.6,10.2,10.2
					C74.2,102.8,69.6,107.4,64,107.4z M64,81.3c-8.3,0-8.3-7.3-8.3-10.2L52,30.9v-0.1c0-5.6,5.4-10.2,12-10.2c6.6,0,12,4.6,12,10.2
					v0.1l-3.7,40.3C72.3,74,72.3,81.3,64,81.3z"/>
			</g>
			<g>
				<path fill="#8E7409" d="M64,21.9c5.9,0,10.7,4,10.7,8.8l-3.7,40.3c0,4.9-1.1,8.8-7,8.8c-5.9,0-6.9-4-6.9-8.8l-3.7-40.3
					C53.3,25.9,58.1,21.9,64,21.9 M64,88.3c4.9,0,8.9,4,8.9,8.8c0,4.9-4,8.9-8.9,8.9c-4.9,0-8.9-4-8.9-8.9
					C55.1,92.3,59.1,88.3,64,88.3 M64,19.2c-3.5,0-6.8,1.1-9.3,3.2c-2.7,2.2-4.1,5.2-4.1,8.4v0.1l0,0.1l3.7,40.1
					c0,2.3,0.2,5.2,1.7,7.6c1.6,2.6,4.3,3.9,8,3.9c3.7,0,6.4-1.3,8-3.9c1.5-2.3,1.7-5.3,1.7-7.6L77.4,31l0-0.1v-0.1
					c0-3.2-1.5-6.2-4.1-8.4C70.8,20.3,67.5,19.2,64,19.2L64,19.2z M64,85.6c-6.4,0-11.6,5.2-11.6,11.6c0,6.4,5.2,11.6,11.6,11.6
					c6.4,0,11.6-5.2,11.6-11.6C75.6,90.8,70.4,85.6,64,85.6L64,85.6z"/>
			</g>
		</g>
	</g>
</g>
</svg>
